resources/icons/cisco/icm.svg

<?xml version="1.0" encoding="UTF-8"?>
<svg xmlns="http://www.w3.org/2000/svg" xmlns:xlink="http://www.w3.org/1999/xlink" width="100pt" height="200pt" viewBox="0 0 100 200" version="1.1">
<g id="surface1">
<path style=" stroke:none;fill-rule:nonzero;fill:rgb(3.137255%,49.803922%,74.901961%);fill-opacity:1;" d="M 9.042969 199.582031 L 18.574219 200.535156 L 58.464844 200.535156 L 68.214844 199.492188 L 73.648438 195.273438 L 74.175781 193.023438 L 74.324219 37.894531 L 3.078125 37.894531 L 2.972656 195.117188 L 9.042969 199.582031 "/>
<path style="fill:none;stroke-width:0.5;stroke-linecap:butt;stroke-linejoin:miter;stroke:rgb(100%,100%,100%);stroke-opacity:1;stroke-miterlimit:4;" d="M 2.079883 45.903867 L 4.27207 46.123086 L 13.446914 46.123086 L 15.689414 45.883203 L 16.939141 44.912891 L 17.06043 44.395391 L 17.09457 8.715742 L 0.707969 8.715742 L 0.683711 44.876953 Z M 2.079883 45.903867 " transform="matrix(4.347826,0,0,4.347826,0,0)"/>
<path style=" stroke:none;fill-rule:nonzero;fill:rgb(3.137255%,49.803922%,74.901961%);fill-opacity:1;" d="M 97.382812 2.355469 L 74.390625 24.007812 L 74.21875 192.507812 L 97.503906 165.886719 L 97.382812 2.355469 "/>
<path style="fill:none;stroke-width:0.5;stroke-linecap:butt;stroke-linejoin:miter;stroke:rgb(100%,100%,100%);stroke-opacity:1;stroke-miterlimit:4;" d="M 22.398047 0.541758 L 17.109844 5.521797 L 17.070312 44.276797 L 22.425898 38.153945 Z M 22.398047 0.541758 " transform="matrix(4.347826,0,0,4.347826,0,0)"/>
<path style=" stroke:none;fill-rule:nonzero;fill:rgb(3.137255%,49.803922%,74.901961%);fill-opacity:1;" d="M 74.535156 37.507812 L 97.316406 15.433594 "/>
<path style="fill:none;stroke-width:0.5;stroke-linecap:butt;stroke-linejoin:miter;stroke:rgb(100%,100%,100%);stroke-opacity:1;stroke-miterlimit:4;" d="M 17.143086 8.626797 L 22.382773 3.549727 M 16.230273 11.88543 L 16.230273 11.163086 M 16.230273 11.88543 L 16.230273 11.163086 " transform="matrix(4.347826,0,0,4.347826,0,0)"/>
<path style="fill-rule:nonzero;fill:rgb(3.137255%,49.803922%,74.901961%);fill-opacity:1;stroke-width:0.5;stroke-linecap:butt;stroke-linejoin:miter;stroke:rgb(100%,100%,100%);stroke-opacity:1;stroke-miterlimit:4;" d="M 17.070312 41.435039 L 22.265078 35.765898 " transform="matrix(4.347826,0,0,4.347826,0,0)"/>
<path style=" stroke:none;fill-rule:nonzero;fill:rgb(3.137255%,49.803922%,74.901961%);fill-opacity:1;" d="M 23.652344 2.292969 L 97.382812 2.355469 L 74.390625 24.007812 C 74.390625 24.007812 44.945312 34.652344 2.125 23.011719 L 23.648438 2.296875 "/>
<path style="fill:none;stroke-width:0.5;stroke-linecap:butt;stroke-linejoin:miter;stroke:rgb(100%,100%,100%);stroke-opacity:1;stroke-miterlimit:4;" d="M 5.440039 0.527383 L 22.398047 0.541758 L 17.109844 5.521797 C 17.109844 5.521797 10.337422 7.970039 0.48875 5.292695 L 5.439141 0.528281 Z M 5.440039 0.527383 " transform="matrix(4.347826,0,0,4.347826,0,0)"/>
<path style=" stroke:none;fill-rule:nonzero;fill:rgb(3.137255%,49.803922%,74.901961%);fill-opacity:1;" d="M 2.125 23.007812 C 44.945312 34.648438 74.386719 24.007812 74.386719 24.007812 L 74.386719 37.238281 C 74.386719 37.238281 44.90625 48.109375 2.082031 36.496094 L 2.125 23.011719 "/>
<path style="fill:none;stroke-width:0.5;stroke-linecap:butt;stroke-linejoin:miter;stroke:rgb(100%,100%,100%);stroke-opacity:1;stroke-miterlimit:4;" d="M 0.48875 5.291797 C 10.337422 7.969141 17.108945 5.521797 17.108945 5.521797 L 17.108945 8.564805 C 17.108945 8.564805 10.328437 11.065156 0.478867 8.394102 L 0.48875 5.292695 Z M 0.48875 5.291797 " transform="matrix(4.347826,0,0,4.347826,0,0)"/>
<path style=" stroke:none;fill-rule:nonzero;fill:rgb(3.137255%,49.803922%,74.901961%);fill-opacity:1;" d="M 73.726562 87.511719 L 3.234375 87.511719 L 3.234375 89.628906 "/>
<path style="fill:none;stroke-width:0.5;stroke-linecap:butt;stroke-linejoin:miter;stroke:rgb(100%,100%,100%);stroke-opacity:1;stroke-miterlimit:4;" d="M 16.957109 20.127695 L 0.743906 20.127695 L 0.743906 20.614648 M 0.786133 14.30582 L 17.005625 14.30582 " transform="matrix(4.347826,0,0,4.347826,0,0)"/>
<path style=" stroke:none;fill-rule:nonzero;fill:rgb(3.137255%,49.803922%,74.901961%);fill-opacity:1;" d="M 3.417969 73.304688 L 73.9375 73.28125 "/>
<path style="fill:none;stroke-width:0.5;stroke-linecap:butt;stroke-linejoin:miter;stroke:rgb(100%,100%,100%);stroke-opacity:1;stroke-miterlimit:4;" d="M 0.786133 16.860078 L 17.005625 16.854688 M 0.786133 14.30582 L 17.005625 14.30582 " transform="matrix(4.347826,0,0,4.347826,0,0)"/>
<path style="fill-rule:nonzero;fill:rgb(3.137255%,49.803922%,74.901961%);fill-opacity:1;stroke-width:0.5;stroke-linecap:butt;stroke-linejoin:miter;stroke:rgb(100%,100%,100%);stroke-opacity:1;stroke-miterlimit:4;" d="M 0.801406 21.900313 L 2.051133 22.866133 L 4.297227 23.109609 " transform="matrix(4.347826,0,0,4.347826,0,0)"/>
<path style="fill-rule:nonzero;fill:rgb(3.137255%,49.803922%,74.901961%);fill-opacity:1;stroke-width:0.5;stroke-linecap:butt;stroke-linejoin:miter;stroke:rgb(100%,100%,100%);stroke-opacity:1;stroke-miterlimit:4;" d="M 1.714219 13.095625 L 16.244648 13.095625 L 16.244648 11.119961 L 1.714219 11.119961 L 1.714219 13.097422 Z M 1.714219 13.095625 " transform="matrix(4.347826,0,0,4.347826,0,0)"/>
<path style="fill-rule:nonzero;fill:rgb(3.137255%,49.803922%,74.901961%);fill-opacity:1;stroke-width:0.5;stroke-linecap:butt;stroke-linejoin:miter;stroke:rgb(100%,100%,100%);stroke-opacity:1;stroke-miterlimit:4;" d="M 4.27207 21.390898 L 13.446914 21.390898 L 15.689414 21.14832 L 16.939141 20.180703 " transform="matrix(4.347826,0,0,4.347826,0,0)"/>
<path style="fill-rule:nonzero;fill:rgb(3.137255%,49.803922%,74.901961%);fill-opacity:1;stroke-width:0.5;stroke-linecap:butt;stroke-linejoin:miter;stroke:rgb(100%,100%,100%);stroke-opacity:1;stroke-miterlimit:4;" d="M 4.27207 23.105117 L 13.446914 23.105117 L 15.689414 22.860742 L 16.939141 21.894922 " transform="matrix(4.347826,0,0,4.347826,0,0)"/>
<path style="fill-rule:nonzero;fill:rgb(3.137255%,49.803922%,74.901961%);fill-opacity:1;stroke-width:0.5;stroke-linecap:butt;stroke-linejoin:miter;stroke:rgb(100%,100%,100%);stroke-opacity:1;stroke-miterlimit:4;" d="M 0.780742 20.180703 L 2.031367 21.14832 L 4.27207 21.390898 " transform="matrix(4.347826,0,0,4.347826,0,0)"/>
<path style="fill-rule:nonzero;fill:rgb(3.137255%,49.803922%,74.901961%);fill-opacity:1;stroke-width:0.5;stroke-linecap:butt;stroke-linejoin:miter;stroke:rgb(100%,100%,100%);stroke-opacity:1;stroke-miterlimit:4;" d="M 0.801406 25.453633 L 2.051133 26.42125 L 4.297227 26.664727 " transform="matrix(4.347826,0,0,4.347826,0,0)"/>
<path style="fill-rule:nonzero;fill:rgb(3.137255%,49.803922%,74.901961%);fill-opacity:1;stroke-width:0.5;stroke-linecap:butt;stroke-linejoin:miter;stroke:rgb(100%,100%,100%);stroke-opacity:1;stroke-miterlimit:4;" d="M 4.27207 24.946016 L 13.446914 24.946016 L 15.689414 24.703437 L 16.939141 23.734922 " transform="matrix(4.347826,0,0,4.347826,0,0)"/>
<path style="fill-rule:nonzero;fill:rgb(3.137255%,49.803922%,74.901961%);fill-opacity:1;stroke-width:0.5;stroke-linecap:butt;stroke-linejoin:miter;stroke:rgb(100%,100%,100%);stroke-opacity:1;stroke-miterlimit:4;" d="M 4.27207 26.660234 L 13.446914 26.660234 L 15.689414 26.415859 L 16.939141 25.449141 " transform="matrix(4.347826,0,0,4.347826,0,0)"/>
<path style="fill-rule:nonzero;fill:rgb(3.137255%,49.803922%,74.901961%);fill-opacity:1;stroke-width:0.5;stroke-linecap:butt;stroke-linejoin:miter;stroke:rgb(100%,100%,100%);stroke-opacity:1;stroke-miterlimit:4;" d="M 0.780742 23.734922 L 2.031367 24.703437 L 4.27207 24.946016 " transform="matrix(4.347826,0,0,4.347826,0,0)"/>
<path style="fill-rule:nonzero;fill:rgb(3.137255%,49.803922%,74.901961%);fill-opacity:1;stroke-width:0.5;stroke-linecap:butt;stroke-linejoin:miter;stroke:rgb(100%,100%,100%);stroke-opacity:1;stroke-miterlimit:4;" d="M 0.801406 29.00875 L 2.051133 29.97457 L 4.297227 30.219844 " transform="matrix(4.347826,0,0,4.347826,0,0)"/>
<path style="fill-rule:nonzero;fill:rgb(3.137255%,49.803922%,74.901961%);fill-opacity:1;stroke-width:0.5;stroke-linecap:butt;stroke-linejoin:miter;stroke:rgb(100%,100%,100%);stroke-opacity:1;stroke-miterlimit:4;" d="M 4.27207 28.502031 L 13.446914 28.502031 L 15.689414 28.255859 L 16.939141 27.290039 " transform="matrix(4.347826,0,0,4.347826,0,0)"/>
<path style="fill-rule:nonzero;fill:rgb(3.137255%,49.803922%,74.901961%);fill-opacity:1;stroke-width:0.5;stroke-linecap:butt;stroke-linejoin:miter;stroke:rgb(100%,100%,100%);stroke-opacity:1;stroke-miterlimit:4;" d="M 4.27207 30.215352 L 13.446914 30.215352 L 15.689414 29.970977 L 16.939141 29.004258 " transform="matrix(4.347826,0,0,4.347826,0,0)"/>
<path style="fill-rule:nonzero;fill:rgb(3.137255%,49.803922%,74.901961%);fill-opacity:1;stroke-width:0.5;stroke-linecap:butt;stroke-linejoin:miter;stroke:rgb(100%,100%,100%);stroke-opacity:1;stroke-miterlimit:4;" d="M 0.780742 27.290039 L 2.031367 28.255859 L 4.27207 28.501133 " transform="matrix(4.347826,0,0,4.347826,0,0)"/>
<path style="fill-rule:nonzero;fill:rgb(3.137255%,49.803922%,74.901961%);fill-opacity:1;stroke-width:0.5;stroke-linecap:butt;stroke-linejoin:miter;stroke:rgb(100%,100%,100%);stroke-opacity:1;stroke-miterlimit:4;" d="M 0.801406 32.563867 L 2.051133 33.529688 L 4.297227 33.774961 " transform="matrix(4.347826,0,0,4.347826,0,0)"/>
<path style="fill-rule:nonzero;fill:rgb(3.137255%,49.803922%,74.901961%);fill-opacity:1;stroke-width:0.5;stroke-linecap:butt;stroke-linejoin:miter;stroke:rgb(100%,100%,100%);stroke-opacity:1;stroke-miterlimit:4;" d="M 4.27207 32.05625 L 13.446914 32.05625 L 15.689414 31.810977 L 16.939141 30.845156 " transform="matrix(4.347826,0,0,4.347826,0,0)"/>
<path style="fill-rule:nonzero;fill:rgb(3.137255%,49.803922%,74.901961%);fill-opacity:1;stroke-width:0.5;stroke-linecap:butt;stroke-linejoin:miter;stroke:rgb(100%,100%,100%);stroke-opacity:1;stroke-miterlimit:4;" d="M 4.27207 33.76957 L 13.446914 33.76957 L 15.689414 33.525195 L 16.939141 32.559375 " transform="matrix(4.347826,0,0,4.347826,0,0)"/>
<path style="fill-rule:nonzero;fill:rgb(3.137255%,49.803922%,74.901961%);fill-opacity:1;stroke-width:0.5;stroke-linecap:butt;stroke-linejoin:miter;stroke:rgb(100%,100%,100%);stroke-opacity:1;stroke-miterlimit:4;" d="M 0.780742 30.845156 L 2.031367 31.810977 L 4.27207 32.05625 " transform="matrix(4.347826,0,0,4.347826,0,0)"/>
<path style="fill-rule:nonzero;fill:rgb(3.137255%,49.803922%,74.901961%);fill-opacity:1;stroke-width:0.5;stroke-linecap:butt;stroke-linejoin:miter;stroke:rgb(100%,100%,100%);stroke-opacity:1;stroke-miterlimit:4;" d="M 0.801406 36.118984 L 2.051133 37.084805 L 4.297227 37.32918 " transform="matrix(4.347826,0,0,4.347826,0,0)"/>
<path style="fill-rule:nonzero;fill:rgb(3.137255%,49.803922%,74.901961%);fill-opacity:1;stroke-width:0.5;stroke-linecap:butt;stroke-linejoin:miter;stroke:rgb(100%,100%,100%);stroke-opacity:1;stroke-miterlimit:4;" d="M 4.27207 35.60957 L 13.446914 35.60957 L 15.689414 35.366094 L 16.939141 34.400273 " transform="matrix(4.347826,0,0,4.347826,0,0)"/>
<path style="fill-rule:nonzero;fill:rgb(3.137255%,49.803922%,74.901961%);fill-opacity:1;stroke-width:0.5;stroke-linecap:butt;stroke-linejoin:miter;stroke:rgb(100%,100%,100%);stroke-opacity:1;stroke-miterlimit:4;" d="M 4.27207 37.323789 L 13.446914 37.323789 L 15.689414 37.080313 L 16.939141 36.113594 " transform="matrix(4.347826,0,0,4.347826,0,0)"/>
<path style="fill-rule:nonzero;fill:rgb(3.137255%,49.803922%,74.901961%);fill-opacity:1;stroke-width:0.5;stroke-linecap:butt;stroke-linejoin:miter;stroke:rgb(100%,100%,100%);stroke-opacity:1;stroke-miterlimit:4;" d="M 0.780742 34.400273 L 2.031367 35.366094 L 4.27207 35.60957 " transform="matrix(4.347826,0,0,4.347826,0,0)"/>
<path style="fill-rule:nonzero;fill:rgb(3.137255%,49.803922%,74.901961%);fill-opacity:1;stroke-width:0.5;stroke-linecap:butt;stroke-linejoin:miter;stroke:rgb(100%,100%,100%);stroke-opacity:1;stroke-miterlimit:4;" d="M 0.801406 39.672305 L 2.051133 40.639922 L 4.297227 40.884297 " transform="matrix(4.347826,0,0,4.347826,0,0)"/>
<path style="fill-rule:nonzero;fill:rgb(3.137255%,49.803922%,74.901961%);fill-opacity:1;stroke-width:0.5;stroke-linecap:butt;stroke-linejoin:miter;stroke:rgb(100%,100%,100%);stroke-opacity:1;stroke-miterlimit:4;" d="M 4.27207 39.164687 L 13.446914 39.164687 L 15.689414 38.921211 L 16.939141 37.953594 " transform="matrix(4.347826,0,0,4.347826,0,0)"/>
<path style="fill-rule:nonzero;fill:rgb(3.137255%,49.803922%,74.901961%);fill-opacity:1;stroke-width:0.5;stroke-linecap:butt;stroke-linejoin:miter;stroke:rgb(100%,100%,100%);stroke-opacity:1;stroke-miterlimit:4;" d="M 4.27207 40.878906 L 13.446914 40.878906 L 15.689414 40.63543 L 16.939141 39.666914 " transform="matrix(4.347826,0,0,4.347826,0,0)"/>
<path style="fill-rule:nonzero;fill:rgb(3.137255%,49.803922%,74.901961%);fill-opacity:1;stroke-width:0.5;stroke-linecap:butt;stroke-linejoin:miter;stroke:rgb(100%,100%,100%);stroke-opacity:1;stroke-miterlimit:4;" d="M 0.780742 37.953594 L 2.031367 38.921211 L 4.27207 39.164687 " transform="matrix(4.347826,0,0,4.347826,0,0)"/>
<path style="fill-rule:nonzero;fill:rgb(3.137255%,49.803922%,74.901961%);fill-opacity:1;stroke-width:0.5;stroke-linecap:butt;stroke-linejoin:miter;stroke:rgb(100%,100%,100%);stroke-opacity:1;stroke-miterlimit:4;" d="M 0.801406 43.22832 L 2.051133 44.194141 L 4.297227 44.439414 " transform="matrix(4.347826,0,0,4.347826,0,0)"/>
<path style="fill-rule:nonzero;fill:rgb(3.137255%,49.803922%,74.901961%);fill-opacity:1;stroke-width:0.5;stroke-linecap:butt;stroke-linejoin:miter;stroke:rgb(100%,100%,100%);stroke-opacity:1;stroke-miterlimit:4;" d="M 4.27207 42.719805 L 13.446914 42.719805 L 15.689414 42.47543 L 16.939141 41.508711 " transform="matrix(4.347826,0,0,4.347826,0,0)"/>
<path style="fill-rule:nonzero;fill:rgb(3.137255%,49.803922%,74.901961%);fill-opacity:1;stroke-width:0.5;stroke-linecap:butt;stroke-linejoin:miter;stroke:rgb(100%,100%,100%);stroke-opacity:1;stroke-miterlimit:4;" d="M 4.27207 44.434023 L 13.446914 44.434023 L 15.689414 44.189648 L 16.939141 43.22293 " transform="matrix(4.347826,0,0,4.347826,0,0)"/>
<path style="fill-rule:nonzero;fill:rgb(3.137255%,49.803922%,74.901961%);fill-opacity:1;stroke-width:0.5;stroke-linecap:butt;stroke-linejoin:miter;stroke:rgb(100%,100%,100%);stroke-opacity:1;stroke-miterlimit:4;" d="M 0.780742 41.508711 L 2.031367 42.47543 L 4.27207 42.719805 " transform="matrix(4.347826,0,0,4.347826,0,0)"/>
</g>
</svg>

<svg xmlns="http://www.w3.org/2000/svg" viewBox="0 0 22.5 46.25" height="46.25" width="22.5"><path d="M2.08 45.904l2.192.219h9.175l2.242-.24 1.25-.97.121-.518.035-35.679H.708L.684 44.877l1.396 1.027" fill="#087fbf"/><path d="M2.08 45.904l2.192.219h9.175l2.242-.24 1.25-.97.121-.518.035-35.679H.708L.684 44.877l1.396 1.027z" fill="none" stroke="#fff" stroke-width=".5"/><path d="M22.398.542l-5.288 4.98-.04 38.755 5.356-6.123L22.398.542" fill="#087fbf"/><path d="M22.398.542l-5.288 4.98-.04 38.755 5.356-6.123L22.398.542z" fill="none" stroke="#fff" stroke-width=".5"/><path d="M17.143 8.627l5.24-5.077" fill="#087fbf"/><path d="M17.143 8.627l5.24-5.077M16.23 11.885v-.722M16.23 11.885v-.722" fill="none" stroke="#fff" stroke-width=".5"/><path d="M17.07 41.435l5.195-5.669" fill="#087fbf"/><path d="M17.07 41.435l5.195-5.669" fill="none" stroke="#fff" stroke-width=".5"/><path d="M5.44.527l16.958.015-5.288 4.98S10.337 7.97.489 5.293L5.439.528" fill="#087fbf"/><path d="M5.44.527l16.958.015-5.288 4.98S10.337 7.97.489 5.293L5.439.528z" fill="none" stroke="#fff" stroke-width=".5"/><path d="M.489 5.292c9.848 2.677 16.62.23 16.62.23v3.043s-6.781 2.5-16.63-.171l.01-3.101" fill="#087fbf"/><path d="M.489 5.292c9.848 2.677 16.62.23 16.62.23v3.043s-6.781 2.5-16.63-.171l.01-3.101z" fill="none" stroke="#fff" stroke-width=".5"/><path d="M16.957 20.128H.744v.487" fill="#087fbf"/><path d="M16.957 20.128H.744v.487M.786 14.306h16.22" fill="none" stroke="#fff" stroke-width=".5"/><path d="M.786 16.86l16.22-.005" fill="#087fbf"/><path d="M.786 16.86l16.22-.005M.786 14.306h16.22" fill="none" stroke="#fff" stroke-width=".5"/><path d="M.801 21.9l1.25.966 2.246.244" fill="#087fbf"/><path d="M.801 21.9l1.25.966 2.246.244" fill="none" stroke="#fff" stroke-width=".5"/><path d="M1.714 13.096h14.531V11.12H1.714v1.977z" fill="#087fbf"/><path d="M1.714 13.096h14.531V11.12H1.714v1.977z" fill="none" stroke="#fff" stroke-width=".5"/><path d="M4.272 21.391h9.175l2.242-.243 1.25-.967" fill="#087fbf"/><path d="M4.272 21.391h9.175l2.242-.243 1.25-.967" fill="none" stroke="#fff" stroke-width=".5"/><path d="M4.272 23.105h9.175l2.242-.244 1.25-.966" fill="#087fbf"/><path d="M4.272 23.105h9.175l2.242-.244 1.25-.966" fill="none" stroke="#fff" stroke-width=".5"/><path d="M.781 20.181l1.25.967 2.241.243" fill="#087fbf"/><path d="M.781 20.181l1.25.967 2.241.243" fill="none" stroke="#fff" stroke-width=".5"/><path d="M.801 25.454l1.25.967 2.246.244" fill="#087fbf"/><path d="M.801 25.454l1.25.967 2.246.244" fill="none" stroke="#fff" stroke-width=".5"/><path d="M4.272 24.946h9.175l2.242-.243 1.25-.968" fill="#087fbf"/><path d="M4.272 24.946h9.175l2.242-.243 1.25-.968" fill="none" stroke="#fff" stroke-width=".5"/><path d="M4.272 26.66h9.175l2.242-.244 1.25-.967" fill="#087fbf"/><path d="M4.272 26.66h9.175l2.242-.244 1.25-.967" fill="none" stroke="#fff" stroke-width=".5"/><path d="M.781 23.735l1.25.968 2.241.243" fill="#087fbf"/><path d="M.781 23.735l1.25.968 2.241.243" fill="none" stroke="#fff" stroke-width=".5"/><path d="M.801 29.009l1.25.966 2.246.245" fill="#087fbf"/><path d="M.801 29.009l1.25.966 2.246.245" fill="none" stroke="#fff" stroke-width=".5"/><path d="M4.272 28.502h9.175l2.242-.246 1.25-.966" fill="#087fbf"/><path d="M4.272 28.502h9.175l2.242-.246 1.25-.966" fill="none" stroke="#fff" stroke-width=".5"/><path d="M4.272 30.215h9.175l2.242-.244 1.25-.967" fill="#087fbf"/><path d="M4.272 30.215h9.175l2.242-.244 1.25-.967" fill="none" stroke="#fff" stroke-width=".5"/><path d="M.781 27.29l1.25.966 2.241.245" fill="#087fbf"/><path d="M.781 27.29l1.25.966 2.241.245" fill="none" stroke="#fff" stroke-width=".5"/><path d="M.801 32.564l1.25.966 2.246.245" fill="#087fbf"/><path d="M.801 32.564l1.25.966 2.246.245" fill="none" stroke="#fff" stroke-width=".5"/><path d="M4.272 32.056h9.175l2.242-.245 1.25-.966" fill="#087fbf"/><path d="M4.272 32.056h9.175l2.242-.245 1.25-.966" fill="none" stroke="#fff" stroke-width=".5"/><path d="M4.272 33.77h9.175l2.242-.245 1.25-.966" fill="#087fbf"/><path d="M4.272 33.77h9.175l2.242-.245 1.25-.966" fill="none" stroke="#fff" stroke-width=".5"/><path d="M.781 30.845l1.25.966 2.241.245" fill="#087fbf"/><path d="M.781 30.845l1.25.966 2.241.245" fill="none" stroke="#fff" stroke-width=".5"/><path d="M.801 36.119l1.25.966 2.246.244" fill="#087fbf"/><path d="M.801 36.119l1.25.966 2.246.244" fill="none" stroke="#fff" stroke-width=".5"/><path d="M4.272 35.61h9.175l2.242-.244 1.25-.966" fill="#087fbf"/><path d="M4.272 35.61h9.175l2.242-.244 1.25-.966" fill="none" stroke="#fff" stroke-width=".5"/><path d="M4.272 37.324h9.175l2.242-.244 1.25-.966" fill="#087fbf"/><path d="M4.272 37.324h9.175l2.242-.244 1.25-.966" fill="none" stroke="#fff" stroke-width=".5"/><path d="M.781 34.4l1.25.966 2.241.244" fill="#087fbf"/><path d="M.781 34.4l1.25.966 2.241.244" fill="none" stroke="#fff" stroke-width=".5"/><path d="M.801 39.672l1.25.968 2.246.244" fill="#087fbf"/><path d="M.801 39.672l1.25.968 2.246.244" fill="none" stroke="#fff" stroke-width=".5"/><path d="M4.272 39.165h9.175l2.242-.244 1.25-.967" fill="#087fbf"/><path d="M4.272 39.165h9.175l2.242-.244 1.25-.967" fill="none" stroke="#fff" stroke-width=".5"/><path d="M4.272 40.879h9.175l2.242-.244 1.25-.968" fill="#087fbf"/><path d="M4.272 40.879h9.175l2.242-.244 1.25-.968" fill="none" stroke="#fff" stroke-width=".5"/><path d="M.781 37.954l1.25.967 2.241.244" fill="#087fbf"/><path d="M.781 37.954l1.25.967 2.241.244" fill="none" stroke="#fff" stroke-width=".5"/><path d="M.801 43.228l1.25.966 2.246.245" fill="#087fbf"/><path d="M.801 43.228l1.25.966 2.246.245" fill="none" stroke="#fff" stroke-width=".5"/><path d="M4.272 42.72h9.175l2.242-.245 1.25-.966" fill="#087fbf"/><path d="M4.272 42.72h9.175l2.242-.245 1.25-.966" fill="none" stroke="#fff" stroke-width=".5"/><path d="M4.272 44.434h9.175l2.242-.244 1.25-.967" fill="#087fbf"/><path d="M4.272 44.434h9.175l2.242-.244 1.25-.967" fill="none" stroke="#fff" stroke-width=".5"/><path d="M.781 41.509l1.25.966 2.241.245" fill="#087fbf"/><path d="M.781 41.509l1.25.966 2.241.245" fill="none" stroke="#fff" stroke-width=".5"/></svg>
